packages/bpk-svgs/src/icons/content/content--share-ios.svg

<svg xmlns="http://www.w3.org/2000/svg" viewBox="0 0 24 24"><path d="M20 9v11a2 2 0 0 1-2 2H6a2 2 0 0 1-2-2V9h2v10.75a.25.25 0 0 0 .25.25h11.5a.25.25 0 0 0 .25-.25V9zm-9-3v10h2V6l2.5 2.5L17 7l-5-5-5 5 1.5 1.5z"/></svg>

<svg id="icon" xmlns="http://www.w3.org/2000/svg" viewBox="0 0 24 24"><title>share--ios</title><path d="M20,9V20a2,2,0,0,1-2,2H6a2,2,0,0,1-2-2V9H6V19.75a.25.25,0,0,0,.25.25h11.5a.25.25,0,0,0,.25-.25V9ZM11,6V16h2V6l2.5,2.5L17,7,12,2,7,7,8.5,8.5Z" fill="#231f20"/></svg>
